src/assets/tiktok.svg

<svg width="24" height="26" viewBox="0 0 24 26" fill="none" xmlns="http://www.w3.org/2000/svg">
<path id="Vector" fill-rule="evenodd" clip-rule="evenodd" d="M13.9194 1.32463H17.1391C17.4494 2.96216 18.4439 4.36728 19.8218 5.24516C19.8222 5.24572 19.8228 5.24629 19.8232 5.24685C20.7823 5.85774 21.9259 6.21415 23.1536 6.21415V7.17091L23.1538 10.5115C20.8733 10.5115 18.7601 9.79852 17.0353 8.58854V17.323C17.0353 21.6851 13.4041 25.2339 8.9406 25.2339C7.21591 25.2339 5.61649 24.7023 4.30177 23.8001C4.30107 23.7994 4.30036 23.7985 4.29952 23.7978C2.21335 22.3654 0.846191 19.9977 0.846191 17.3221C0.846191 12.9601 4.47737 9.41117 8.94089 9.41117C9.31122 9.41117 9.67424 9.44098 10.0316 9.48836V10.5066L10.0315 13.8769C9.68619 13.7713 9.3212 13.7099 8.9406 13.7099C6.90224 13.7099 5.2439 15.3308 5.2439 17.323C5.2439 18.7102 6.04924 19.9156 7.22589 20.5207C7.73893 20.7846 8.3217 20.9359 8.94046 20.9359C10.9319 20.9359 12.5563 19.3878 12.6303 17.4589L12.6373 0.233887H17.0352C17.0352 0.606467 17.072 0.970611 17.1391 1.32463H13.9194Z" fill="white"/>
</svg>

<svg width="24" height="26" fill="none" xmlns="http://www.w3.org/2000/svg"><path fill-rule="evenodd" clip-rule="evenodd" d="M13.92 1.325h3.22a5.988 5.988 0 0 0 2.682 3.92l.001.002c.96.61 2.103.967 3.33.967v4.297c-2.28 0-4.393-.712-6.118-1.922v8.734c0 4.362-3.63 7.91-8.094 7.91A8.175 8.175 0 0 1 4.3 23.8l-.001-.002c-2.087-1.433-3.454-3.8-3.454-6.476 0-4.362 3.631-7.91 8.095-7.91.37 0 .733.029 1.09.076v4.389a3.72 3.72 0 0 0-1.09-.167c-2.039 0-3.697 1.62-3.697 3.613 0 1.387.805 2.593 1.982 3.198a3.739 3.739 0 0 0 1.714.415c1.992 0 3.616-1.548 3.69-3.477L12.637.234h4.398c0 .372.037.737.104 1.09h-3.22Z" fill="#fff"/></svg>
